X: 36
T:Princess Royal (Bampton)
M:2/2
L:1/8
Q:1/4=140
O:England; Oxfordshire; Bampton.
B:Lionel Bacon, A Handbook of Morris Dances
Z:http://www.themorrisring.org/music/handbook-morris-dances
P:AAB(CB)2
K:GMin
P:A
dc|B2A2 G2dc|B2AB  G2Bd|e2c2 cdec|d2dc BABd|
c2B2 A2G2|FGFD B,2dc|B2AG F2d2|G4   G4||
P:B
b2b2 b2ab|c'2f2   f4|bagf edcB|AcF2 F4|
G2GA BABc|d2d2   g3g|f2d2 e3e |d2G2 c4|
dcBA GABc|d2G2  G2dc|B2AG F2d2|G4   G4||
P:C
M:2/4
d3c|\
M:4/4
L:1/8
B3c A3B|G4 d3c|B3c A3B|G4 d4|e4 c4|c2d2 e2c2|d4 B4|
M:2/4
BABd|\
M:4/4
L:1/8
c2B2 A2G2|FGFD B,2dc|B2AG F2d2|G4 G4||

